!!!COM: Anonymous
!!!CDT: [?]
!!!OTL@@LAT: Veni Creator Spiritus
!!!TXO: Latin
!!!ODT: 
!!!GTL: Hymnbook E
!!!ARL: Opactwo św. Wojciecha, Staniątki 
!!!voices:	3
**kern	**kern	**text	**kern	**text
*staff3	*staff2	*staff2	*staff1	*staff1
*I"Basso	*I"Tenore	*	*I"Canto	*
=1-	=1-	=1-	=1-	=1-
*clefF4	*clefGv2	*	*clefG2	*
*k[]	*k[]	*	*k[]	*
*met(c|)	*met(c|)	*	*met(c|)	*
*M2/2	*M2/2	*	*M2/2	*
1G	1G	Ve-	1dd	Ve-
=2	=2	=2	=2	=2
1D	1A	-ni	2.dd	-ni
.	.	.	4cc	.
=3	=3	=3	=3	=3
2E	1G	Cre-	4b	.
.	.	.	4a	.
2C	.	.	2g	.
=4	=4	=4	=4	=4
1D	1F#	.	2d	Cre-
.	.	.	[2a	-a-
=5	=5	=5	=5	=5
1E	1G	-a-	4a]	.
.	.	.	4g	.
.	.	.	[2g	.
=6	=6	=6	=6	=6
1D	1A	-tor	2g]	.
.	.	.	2f#	.
=7	=7	=7	=7	=7
2GG	1G	.	2g	-tor
2G	.	.	[2dd	Spi-
=8	=8	=8	=8	=8
1A	1c	Spi-	4dd]	.
.	.	.	4cc	.
.	.	.	[2cc	-ri-
=9	=9	=9	=9	=9
1G	1d	-ri-	2cc]	.
.	.	.	2b	.
=10	=10	=10	=10	=10
1C	1c	-tus	1cc	-tus
=11	=11	=11	=11	=11
2r	1c	men-	1g	men-
[2c	.	.	.	.
=12	=12	=12	=12	=12
2c]	1G	-tes	1dd	.
2B	.	.	.	.
=13	=13	=13	=13	=13
4c	1A	tu-	1cc	-tes
4B	.	.	.	.
4A	.	.	.	.
4G	.	.	.	.
=14	=14	=14	=14	=14
2F	1c	-o-	2r	.
2A	.	.	[2cc	tu-
=15	=15	=15	=15	=15
1G	1d	-rum	2cc]	.
.	.	.	2b	.
=16	=16	=16	=16	=16
2r	1c	.	2cc	-o-
2A	.	.	[2ee	.
=17	=17	=17	=17	=17
1B-	1d	vi-	4ee]	.
.	.	.	4dd	-rum
.	.	.	[2dd	vi-
=18	=18	=18	=18	=18
1A	1e	-si-	2dd]	.
.	.	.	2cc#	-si-
=19	=19	=19	=19	=19
4D	1d	-ta	2dd	-ta
4E	.	.	.	.
4F	.	.	[2a	im-
4G	.	.	.	.
=20	=20	=20	=20	=20
1A	1c	im-	4a]	.
.	.	.	4b	.
.	.	.	[2cc	-ple
=21	=21	=21	=21	=21
1G	1d	-ple	2cc]	.
.	.	.	2b	.
=22	=22	=22	=22	=22
2C	1e	.	2.cc	su-
2C	.	.	.	.
.	.	.	4dd	.
=23	=23	=23	=23	=23
2C	1c	su-	1ee	-per-
2C	.	.	.	.
=24	=24	=24	=24	=24
1G	1B	.	1dd	-na
=25	=25	=25	=25	=25
1D	1A	-per-	2r	.
.	.	.	2dd	im-
=26	=26	=26	=26	=26
2GG	1G	.	2dd	-ple
2G	.	.	2dd	su-
=27	=27	=27	=27	=27
2F	1c	-na	1cc	-per-
2E	.	.	.	.
=28	=28	=28	=28	=28
1D	1d	.	1a	-na
=29	=29	=29	=29	=29
1E	1G	gra-	2r	.
.	.	.	2dd	im-
=30	=30	=30	=30	=30
1D	1A	-ti-	2dd	-ple
.	.	.	2dd	su-
=31	=31	=31	=31	=31
2.C	1c	.	1ee	-per-
4D	.	.	.	.
=32	=32	=32	=32	=32
2E	1c	-a	2cc	-na
2F	.	.	2a	gra-
=33	=33	=33	=33	=33
1D	1B	quae	1dd	-ti-
=34	=34	=34	=34	=34
2C	1c	.	2g	-a
2F	.	.	[2a	quae
=35	=35	=35	=35	=35
2F	1A	tu	4a]	.
.	.	.	4g	.
2F	.	.	[2f	tu
=36	=36	=36	=36	=36
1C	1G	cre-	2f]	.
.	.	.	2e	.
=37	=37	=37	=37	=37
2D	1F	.	4f	cre-
.	.	.	4g	.
[2F	.	.	4a	.
.	.	.	4b	.
=38	=38	=38	=38	=38
2F]	1A	-a	4cc	-a-
.	.	.	4a	.
2F	.	.	[2cc	-sti
=39	=39	=39	=39	=39
!LO:TX:Y=9:t=[  ]	!	!	!	!
1F	1A	sti	4cc]	.
.	.	.	4b	.
.	.	.	[2a	pec-
=40	=40	=40	=40	=40
1G	1B-	.	4a]	.
.	.	.	4g	.
.	.	.	[2g	.
=41	=41	=41	=41	=41
2.D	1A	pec-	2g]	.
.	.	.	2f#	-to-
4C	.	.	.	.
=42	=42	=42	=42	=42
2BB	1G	.	2g	-ra
2C	.	.	2g	cre-
=43	=43	=43	=43	=43
1AA	1F#	-to-	1a	-a-
=44	=44	=44	=44	=44
1GG	1G	.	2b	-sti
.	.	.	[2dd	pec-
=45	=45	=45	=45	=45
[1GG	[1G	-ra.	4dd]	.
.	.	.	4cc	.
.	.	.	4b	-to-
.	.	.	4a	.
=46	=46	=46	=46	=46
1GG]	1G]	.	1b	-ra.
==	==	==	==	==
*-	*-	*-	*-	*-
!!!GTL: Hymnbook E
!!!EFL: 88/117
!!!YEM: Creative Commons CC/BY/NC/SA 4.0
!!!ENC: Marcin Konik
!!!END: 
!!!EED: Marcin Konik
!!!EEV: 
!!!ONB: Translated from MusicXML and edited by Marcin Konik
!!!CharacterEncoding: utf-8
!!!RDF**kern: l=long note in original notation
!!!RDF**kern: i=editorial accidental
!!muse2ps: z14jc180F
